packages/assets/static/images/icons/scooter.svg

<svg width="24" height="24" viewBox="0 0 24 24" xmlns="http://www.w3.org/2000/svg">
<path d="M19.8735 13.499C19.7629 13.499 19.6532 13.5046 19.5445 13.515L16.4601 4.26184C16.4103 4.1125 16.3148 3.98261 16.1871 3.89057C16.0594 3.79853 15.9059 3.74901 15.7485 3.74902H12.7485C12.5496 3.74902 12.3588 3.82804 12.2182 3.96869C12.0775 4.10935 11.9985 4.30011 11.9985 4.49902C11.9985 4.69794 12.0775 4.8887 12.2182 5.02935C12.3588 5.17001 12.5496 5.24902 12.7485 5.24902H15.2076L16.8426 10.1531L11.6432 16.499H7.47696C7.38452 15.6749 6.99186 14.9136 6.37391 14.3605C5.75597 13.8074 4.95601 13.5011 4.12667 13.5002C3.29734 13.4993 2.49671 13.8038 1.87756 14.3556C1.25841 14.9073 0.864095 15.6677 0.769855 16.4917C0.675615 17.3157 0.88805 18.1455 1.36662 18.8228C1.8452 19.5001 2.5564 19.9775 3.36452 20.1639C4.17263 20.3503 5.02109 20.2326 5.74796 19.8333C6.47484 19.434 7.02925 18.781 7.3054 17.999H11.9985C12.1096 17.999 12.2192 17.9744 12.3196 17.9269C12.4199 17.8794 12.5085 17.8102 12.5788 17.7243L17.4032 11.8359L18.1213 13.9921C17.425 14.4166 16.9058 15.0788 16.6599 15.8564C16.414 16.634 16.458 17.4743 16.7838 18.222C17.1095 18.9697 17.6949 19.5741 18.4318 19.9235C19.1687 20.273 20.0072 20.3437 20.7922 20.1228C21.5772 19.9019 22.2557 19.4042 22.7022 18.7217C23.1487 18.0392 23.3329 17.2182 23.2209 16.4104C23.1088 15.6026 22.7081 14.8627 22.0927 14.3275C21.4774 13.7923 20.6891 13.498 19.8735 13.499ZM4.12352 18.749C3.75268 18.749 3.39017 18.6391 3.08183 18.433C2.77349 18.227 2.53316 17.9342 2.39125 17.5916C2.24934 17.2489 2.2122 16.8719 2.28455 16.5082C2.3569 16.1445 2.53548 15.8104 2.7977 15.5482C3.05992 15.286 3.39402 15.1074 3.75773 15.0351C4.12144 14.9627 4.49844 14.9998 4.84105 15.1418C5.18367 15.2837 5.4765 15.524 5.68253 15.8323C5.88856 16.1407 5.99852 16.5032 5.99852 16.874C5.99852 17.1203 5.95003 17.3641 5.8558 17.5916C5.76157 17.819 5.62346 18.0257 5.44935 18.1998C5.27524 18.374 5.06854 18.5121 4.84105 18.6063C4.61357 18.7005 4.36975 18.749 4.12352 18.749ZM19.8735 18.749C19.5027 18.749 19.1402 18.6391 18.8318 18.433C18.5235 18.227 18.2832 17.9342 18.1413 17.5916C17.9993 17.2489 17.9622 16.8719 18.0346 16.5082C18.1069 16.1445 18.2855 15.8104 18.5477 15.5482C18.8099 15.286 19.144 15.1074 19.5077 15.0351C19.8714 14.9627 20.2484 14.9998 20.5911 15.1418C20.9337 15.2837 21.2265 15.524 21.4325 15.8323C21.6386 16.1407 21.7485 16.5032 21.7485 16.874C21.7485 17.1203 21.7 17.3641 21.6058 17.5916C21.5116 17.819 21.3735 18.0257 21.1993 18.1998C21.0252 18.374 20.8185 18.5121 20.5911 18.6063C20.3636 18.7005 20.1198 18.749 19.8735 18.749Z"/>
</svg>

<svg viewBox="0 0 24 24" xmlns="http://www.w3.org/2000/svg" aria-hidden="true" fill="currentColor"><path d="M19.874 13.499q-.166 0-.33.016L16.46 4.262a.75.75 0 0 0-.712-.513h-3a.75.75 0 1 0 0 1.5h2.46l1.635 4.904-5.2 6.346H7.477a3.375 3.375 0 1 0-.172 1.5H12a.75.75 0 0 0 .58-.275l4.824-5.888.718 2.156a3.376 3.376 0 1 0 1.753-.493m-15.75 5.25a1.874 1.874 0 1 1 0-3.749 1.874 1.874 0 0 1 0 3.749m15.75 0a1.875 1.875 0 1 1 0-3.75 1.875 1.875 0 0 1 0 3.75"/></svg>
